icons/op-enumerations-24.svg

<svg width="24" height="24" viewBox="0 0 24 24" fill="none" xmlns="http://www.w3.org/2000/svg">
<path d="M10.2538 5.536H20V7.04H10.2538V5.536ZM10.2538 11.648H20V13.152H10.2538V11.648ZM10.2538 17.376H20V18.848H10.2538V17.376ZM5.56818 20L4.1 18.336C3.94382 18.176 3.97505 17.92 4.16248 17.76C4.34991 17.632 4.63105 17.664 4.78723 17.824L5.53694 18.688L7.75482 15.904C7.87977 15.744 8.16091 15.712 8.34833 15.84C8.53576 15.968 8.59823 16.224 8.44205 16.384L5.56818 20ZM5.56818 14.528L4.1 12.832C3.94382 12.672 3.97505 12.416 4.16248 12.288C4.34991 12.16 4.63105 12.192 4.78723 12.352L5.53694 13.216L7.75482 10.432C7.87977 10.272 8.16091 10.208 8.34833 10.336C8.53576 10.464 8.59823 10.72 8.44205 10.912L5.56818 14.528ZM6.28664 8.608C5.06837 8.608 4.03753 7.584 4.03753 6.304C4.03753 5.024 5.06837 4 6.28664 4C7.53615 4 8.567 5.024 8.567 6.304C8.567 7.584 7.53615 8.608 6.28664 8.608ZM6.28664 4.704C5.44323 4.704 4.756 5.408 4.756 6.304C4.756 7.168 5.44323 7.872 6.28664 7.872C7.1613 7.872 7.84853 7.168 7.84853 6.304C7.84853 5.408 7.1613 4.704 6.28664 4.704Z" fill="black"/>
</svg>

<svg xmlns="http://www.w3.org/2000/svg" width="24" height="24" viewBox="0 0 24 24"><path d="M10.254 5.536H20V7.04h-9.746V5.536Zm0 6.112H20v1.504h-9.746v-1.504Zm0 5.728H20v1.472h-9.746v-1.472ZM5.568 20 4.1 18.336c-.156-.16-.125-.416.062-.576a.508.508 0 0 1 .625.064l.75.864 2.218-2.784c.125-.16.406-.192.593-.064.188.128.25.384.094.544L5.568 20Zm0-5.472L4.1 12.832a.355.355 0 0 1 .062-.544.508.508 0 0 1 .625.064l.75.864 2.218-2.784c.125-.16.406-.224.593-.096.188.128.25.384.094.576l-2.874 3.616Zm.719-5.92c-1.219 0-2.249-1.024-2.249-2.304C4.038 5.024 5.068 4 6.287 4a2.294 2.294 0 0 1 2.28 2.304 2.294 2.294 0 0 1-2.28 2.304Zm0-3.904c-.844 0-1.531.704-1.531 1.6 0 .864.687 1.568 1.531 1.568.874 0 1.562-.704 1.562-1.568 0-.896-.688-1.6-1.562-1.6Z"/></svg>
